build/images/lazyload-sidebar-small.svg

<?xml version="1.0" encoding="UTF-8"?>
<svg width="224px" height="316px" viewBox="0 0 224 316" version="1.1" xmlns="http://www.w3.org/2000/svg" xmlns:xlink="http://www.w3.org/1999/xlink">
    <!-- Generator: sketchtool 52.6 (67491) - http://www.bohemiancoding.com/sketch -->
    <title>367C32F9-157B-4154-8A05-C8F67BA2A9C5</title>
    <desc>Created with sketchtool.</desc>
    <g id="Symbols" stroke="none" stroke-width="1" fill="none" fill-rule="evenodd">
        <g id="UI/sidebar/light/small/lazyload">
            <g id="Group">
                <g id="graphic">
                    <rect id="Rectangle" x="0" y="0" width="224" height="316"></rect>
                    <path d="M8,13 C5.23857625,13 3,10.7614237 3,8 C3,5.23857625 5.23857625,3 8,3 C10.7614237,3 13,5.23857625 13,8 C13,10.7614237 10.7614237,13 8,13 Z M8,45 C5.23857625,45 3,42.7614237 3,40 C3,37.2385763 5.23857625,35 8,35 C10.7614237,35 13,37.2385763 13,40 C13,42.7614237 10.7614237,45 8,45 Z M8,77 C5.23857625,77 3,74.7614237 3,72 C3,69.2385763 5.23857625,67 8,67 C10.7614237,67 13,69.2385763 13,72 C13,74.7614237 10.7614237,77 8,77 Z M8,109 C5.23857625,109 3,106.761424 3,104 C3,101.238576 5.23857625,99 8,99 C10.7614237,99 13,101.238576 13,104 C13,106.761424 10.7614237,109 8,109 Z M8,141 C5.23857625,141 3,138.761424 3,136 C3,133.238576 5.23857625,131 8,131 C10.7614237,131 13,133.238576 13,136 C13,138.761424 10.7614237,141 8,141 Z M8,173 C5.23857625,173 3,170.761424 3,168 C3,165.238576 5.23857625,163 8,163 C10.7614237,163 13,165.238576 13,168 C13,170.761424 10.7614237,173 8,173 Z M24,2 L144,2 L144,14 L24,14 L24,2 Z M24,34 L128,34 L128,46 L24,46 L24,34 Z M24,66 L144,66 L144,78 L24,78 L24,66 Z M24,98 L128,98 L128,110 L24,110 L24,98 Z M24,130 L128,130 L128,142 L24,142 L24,130 Z M24,162 L128,162 L128,174 L24,174 L24,162 Z" id="Shape" fill-opacity="0.1" fill="#000000"></path>
                </g>
            </g>
        </g>
    </g>
</svg>

<svg width="224" height="316" xmlns="http://www.w3.org/2000/svg"><g fill="none" fill-rule="evenodd"><path d="M0 0h224v316H0z"/><path d="M8 13A5 5 0 1 1 8 3a5 5 0 0 1 0 10zm0 32a5 5 0 1 1 0-10 5 5 0 0 1 0 10zm0 32a5 5 0 1 1 0-10 5 5 0 0 1 0 10zm0 32a5 5 0 1 1 0-10 5 5 0 0 1 0 10zm0 32a5 5 0 1 1 0-10 5 5 0 0 1 0 10zm0 32a5 5 0 1 1 0-10 5 5 0 0 1 0 10zM24 2h120v12H24V2zm0 32h104v12H24V34zm0 32h120v12H24V66zm0 32h104v12H24V98zm0 32h104v12H24v-12zm0 32h104v12H24v-12z" fill-opacity=".1" fill="#000"/></g></svg>
